public/favicon.svg

<svg xmlns="http://www.w3.org/2000/svg" fill="none" viewBox="0 0 155 190"><path fill="#fff" d="M111.18 161.28c-3.43-4.41-4.9-10.68-5.02-11.14a36.8 36.8 0 0 1-1.23-9.93 2.3 2.3 0 0 1-.11-.74c-.1-.25-.17-.52-.18-.79-.04-.1-.09-.21-.13-.31a2.2 2.2 0 0 1-.04-.8c0-.03-.02-.05-.03-.08-.02-.18-.05-.35-.07-.53 0-.12.03-.24.05-.35v-.01c-2.76.38-4.52.61-4.52.61l4.52-.61s-.2-2.54-.15-5.09c.02-.98.07-1.78.11-2.31.15-.46.19-.77.2-.96 0-.04 0-.11.02-.22.02-.22.05-.32.09-.57 0-.06.02-.16.04-.28.03-.07.07-.13.1-.2v-.05c-.01-.3.03-.61.13-.89.02-.27.07-.54.2-.77-1.32-1.69-2.8-3.19-3.74-2.83-2.04-4.7-12.3-3.64-26.76-4.26-5.98-.26-14.7-.88-25.36-2.61-.02.06-.04.12-.09.16 0 0-.02.01-.02.02.02-.03-.03.04-.04.05-.03.03-.07.05-.1.08 0 0-.11.05-.12.05h-.12c-5.34 9.59-10.97 16.18-15.17 20.45-12.64 12.85-19.83 17.69-19.83 17.69C7.78 158.3.33 162.59.83 167.98c.02.19.03.32.07.48 1.61 6.65 27.63-.13 54.58 7.53 17.68 5.02 15.76 10.58 30.26 13.04 24.41 4.15 48.45-8.42 47.89-14.65-.43-4.74-14.09-2.38-22.44-13.13z"/><path fill="#fff" d="M151.62 51.03c-1.53-.49-2.38 1.25-6.93 2.37-1.94.48-5.46 1.3-9.07-.14-.59-.23-2-.86-3.86-2.56-3.45-3.15-4.8-6.65-6.37-10.35-3.38-7.98-5.07-11.97-7.02-14.32-3.42-4.13-7.77-6.9-9.68-8.11-2.62-1.67-4.8-2.7-5.74-3.13-2.92-1.33-7.36-2.98-13.13-3.76 1.68.16 3.53.13 5.49-.23 5.26-.96 11.36-4.29 11.01-6.77-.38-2.64-8.39-3.6-10.16-3.81C93.62-.09 91.66 0 91 .04 79.17.71 70.33 6.57 70.33 6.57c-5.19 3.44-8.74 7.41-13.97 16.51-6.96 12.11-11 19.14-13.97 30.48-2.88 11.02-6.29 24.05-.42 36.84.72 1.57 1.33 2.59 1.87 3.35 1.02 1.44 1.85 2.41 2.15 2.75 1.62 1.84 4.12 5.95 4.54 10.56.41 4.47-1.26 8.11-2.39 10.06v.03c0 .04-.01.09-.02.13 0 .02-.02.04-.03.06 0 .02 0 .05-.01.07 9.04.95 18.35 2.08 27.91 3.43 10.02 1.41 19.7 2.98 29.04 4.66.04-.1.1-.19.15-.28q.015-.255.09-.51c-.02-.33.05-.64.17-.94 0-.31.07-.62.2-.91.52-4.9 2.19-12.46 7.88-18.09 2.51-2.48 5.48-4.27 5.49-4.27 6.79-3.87 12.53-2.45 21.61-10.98 2.08-1.95 11.62-11.27 13.13-24.98.63-5.75.35-12.76-2.12-13.55z"/><path fill="#fff" d="M105.62 122.89c-.95 2.84-1.35 5.32-1.52 7.17-.35 3.81.08 6.72.42 8.98.22 1.48.38 2.01.4 2.01.06-.01-.29-4.52-.23-5.23 0-.01.01-.13.02-.29.02-.3.04-.55.05-.73"/><path fill="#171717" d="M107.803 51.58c2.961-2.478 2.347-8.088-1.37-12.532-3.718-4.443-9.132-6.037-12.093-3.56-2.96 2.478-2.347 8.088 1.37 12.532 3.719 4.443 9.133 6.037 12.093 3.56"/></svg>

<svg viewBox="0 0 155 190" fill="none" xmlns="http://www.w3.org/2000/svg">
<path d="M111.18 161.28C107.75 156.87 106.28 150.6 106.16 150.14C105.12 146.23 104.9 142.81 104.93 140.21C104.85 139.97 104.82 139.72 104.82 139.47C104.72 139.22 104.65 138.95 104.64 138.68C104.6 138.58 104.55 138.47 104.51 138.37C104.44 138.1 104.44 137.84 104.47 137.57C104.47 137.54 104.45 137.52 104.44 137.49C104.42 137.31 104.39 137.14 104.37 136.96C104.37 136.84 104.4 136.72 104.42 136.61C104.42 136.61 104.42 136.61 104.42 136.6C101.66 136.98 99.9 137.21 99.9 137.21L104.42 136.6C104.42 136.6 104.22 134.06 104.27 131.51C104.29 130.53 104.34 129.73 104.38 129.2C104.53 128.74 104.57 128.43 104.58 128.24C104.58 128.2 104.58 128.13 104.6 128.02C104.62 127.8 104.65 127.7 104.69 127.45C104.69 127.39 104.71 127.29 104.73 127.17C104.76 127.1 104.8 127.04 104.83 126.97C104.83 126.95 104.83 126.94 104.83 126.92C104.82 126.62 104.86 126.31 104.96 126.03C104.98 125.76 105.03 125.49 105.16 125.26C103.84 123.57 102.36 122.07 101.42 122.43C99.38 117.73 89.12 118.79 74.66 118.17C68.68 117.91 59.96 117.29 49.3 115.56C49.28 115.62 49.26 115.68 49.21 115.72C49.21 115.72 49.19 115.73 49.19 115.74C49.21 115.71 49.16 115.78 49.15 115.79C49.12 115.82 49.08 115.84 49.05 115.87C49.05 115.87 48.94 115.92 48.93 115.92C48.91 115.92 48.9 115.92 48.86 115.92C48.84 115.92 48.83 115.92 48.81 115.92C43.47 125.51 37.84 132.1 33.64 136.37C21 149.22 13.81 154.06 13.81 154.06C7.78003 158.3 0.330037 162.59 0.830037 167.98C0.850037 168.17 0.860037 168.3 0.900037 168.46C2.51004 175.11 28.53 168.33 55.48 175.99C73.16 181.01 71.24 186.57 85.74 189.03C110.15 193.18 134.19 180.61 133.63 174.38C133.2 169.64 119.54 172 111.19 161.25L111.18 161.28Z" fill="white"/>
<path d="M151.62 51.03C150.09 50.54 149.24 52.28 144.69 53.4C142.75 53.88 139.23 54.7 135.62 53.26C135.03 53.03 133.62 52.4 131.76 50.7C128.31 47.55 126.96 44.05 125.39 40.35C122.01 32.37 120.32 28.38 118.37 26.03C114.95 21.9 110.6 19.13 108.69 17.92C106.07 16.25 103.89 15.22 102.95 14.79C100.03 13.46 95.59 11.81 89.82 11.03C91.5 11.19 93.35 11.16 95.31 10.8C100.57 9.84 106.67 6.51 106.32 4.03C105.94 1.39 97.93 0.430002 96.16 0.220002C93.62 -0.0899982 91.66 1.77324e-06 91 0.0400018C79.17 0.710002 70.33 6.57 70.33 6.57C65.14 10.01 61.59 13.98 56.36 23.08C49.4 35.19 45.36 42.22 42.39 53.56C39.51 64.58 36.1 77.61 41.97 90.4C42.69 91.97 43.3 92.99 43.84 93.75C44.86 95.19 45.69 96.16 45.99 96.5C47.61 98.34 50.11 102.45 50.53 107.06C50.94 111.53 49.27 115.17 48.14 117.12C48.14 117.13 48.14 117.14 48.14 117.15C48.14 117.19 48.13 117.24 48.12 117.28C48.12 117.3 48.1 117.32 48.09 117.34C48.09 117.36 48.09 117.39 48.08 117.41C57.12 118.36 66.43 119.49 75.99 120.84C86.01 122.25 95.69 123.82 105.03 125.5C105.07 125.4 105.13 125.31 105.18 125.22C105.19 125.05 105.22 124.88 105.27 124.71C105.25 124.38 105.32 124.07 105.44 123.77C105.44 123.46 105.51 123.15 105.64 122.86C106.16 117.96 107.83 110.4 113.52 104.77C116.03 102.29 119 100.5 119.01 100.5C125.8 96.63 131.54 98.05 140.62 89.52C142.7 87.57 152.24 78.25 153.75 64.54C154.38 58.79 154.1 51.78 151.63 50.99L151.62 51.03Z" fill="white"/>
<path d="M105.62 122.89C104.67 125.73 104.27 128.21 104.1 130.06C103.75 133.87 104.18 136.78 104.52 139.04C104.74 140.52 104.9 141.05 104.92 141.05C104.98 141.04 104.63 136.53 104.69 135.82C104.69 135.81 104.7 135.69 104.71 135.53C104.73 135.23 104.75 134.98 104.76 134.8" fill="white"/>
<path d="M107.803 51.5793C110.764 49.1019 110.15 43.4917 106.433 39.0485C102.715 34.6052 97.3008 33.0115 94.34 35.4888C91.3793 37.9662 91.993 43.5764 95.7107 48.0197C99.4285 52.4629 104.843 54.0566 107.803 51.5793Z" fill="#171717"/>
</svg>
